resources/icons/bower.svg

<?xml version="1.0" encoding="UTF-8" standalone="no"?>
<svg
   xmlns:dc="http://purl.org/dc/elements/1.1/"
   xmlns:cc="http://creativecommons.org/ns#"
   xmlns:rdf="http://www.w3.org/1999/02/22-rdf-syntax-ns#"
   xmlns:svg="http://www.w3.org/2000/svg"
   xmlns="http://www.w3.org/2000/svg"
   xmlns:sodipodi="http://sodipodi.sourceforge.net/DTD/sodipodi-0.dtd"
   xmlns:inkscape="http://www.inkscape.org/namespaces/inkscape"
   width="16"
   height="16"
   viewBox="0 0 16 16"
   preserveAspectRatio="xMinYMin meet"
   version="1.1"
   id="svg20"
   sodipodi:docname="bower.svg"
   inkscape:version="0.92.4 (5da689c313, 2019-01-14)">
  <metadata
     id="metadata26">
    <rdf:RDF>
      <cc:Work
         rdf:about="">
        <dc:format>image/svg+xml</dc:format>
        <dc:type
           rdf:resource="http://purl.org/dc/dcmitype/StillImage" />
      </cc:Work>
    </rdf:RDF>
  </metadata>
  <defs
     id="defs24" />
  <sodipodi:namedview
     pagecolor="#ffffff"
     bordercolor="#666666"
     borderopacity="1"
     objecttolerance="10"
     gridtolerance="10"
     guidetolerance="10"
     inkscape:pageopacity="0"
     inkscape:pageshadow="2"
     inkscape:window-width="1920"
     inkscape:window-height="1001"
     id="namedview22"
     showgrid="false"
     inkscape:zoom="20.835276"
     inkscape:cx="-0.015252594"
     inkscape:cy="8"
     inkscape:window-x="-9"
     inkscape:window-y="-9"
     inkscape:window-maximized="1"
     inkscape:current-layer="svg20" />
  <path
     d="M 15.140326,8.0726817 C 14.403016,7.2567323 10.716361,6.7472733 9.5530463,6.5990423 A 3.4138865,3.9322931 0 0 0 9.6970149,6.1239399 4.6554478,5.3623884 0 0 1 10.203739,5.9073843 c 0.02157,0.073307 0.123184,0.3541108 0.181041,0.487331 2.339211,0.074342 2.459306,-2.0023146 2.554461,-2.5712342 0.09302,-0.5562379 0.0883,-1.0937125 0.890658,-2.0763331 C 12.634567,1.3459347 10.915489,2.3690582 10.33973,3.8918705 10.123358,3.7984418 9.9064789,3.72947 9.692015,3.6868319 9.5382735,2.9726576 8.7378841,0.98295975 6.637571,0.98295975 3.9782942,0.98302445 1.0799508,3.5100675 1.0799508,7.7876721 c 0,3.5958459 2.1313198,6.7470629 3.3354709,6.7470629 0.5259349,0 0.978285,-0.453556 1.0845056,-0.860204 0.089032,0.278863 0.3622507,1.145539 0.4519567,1.36617 0.132565,0.326289 0.7459029,0.608646 1.014291,0.269999 0.3450623,0.220825 0.9782851,0.353916 1.3234035,-0.235061 0.6645664,0.161947 1.2521214,-0.294521 1.2649849,-0.839242 0.3261325,-0.02005 0.4861096,-0.547504 0.4148835,-0.967545 -0.05252,-0.309273 -0.6132818,-1.418902 -0.832014,-1.801934 0.4329706,0.405678 1.5297781,0.520522 1.6630171,2.59e-4 0.698101,0.631162 1.786089,0.299891 1.872369,-0.213451 0.848304,0.253889 1.821251,-0.303708 1.661557,-0.979061 1.362723,-0.108504 1.18831,-1.7786419 0.80595,-2.2019186 z"
     id="path2"
     inkscape:connector-curvature="0"
     style="fill:#543729;stroke-width:0.06028584" />
  <path
     d="M 11.34582,4.5108044 C 11.639373,3.8399801 12.008196,3.1075601 12.474028,2.6544561 11.961292,2.8924279 11.455074,3.604014 11.155736,4.3645143 A 4.6173636,5.3185208 0 0 0 10.692095,4.0660468 c 0.417523,-1.0265527 1.38772,-1.883911 2.456946,-1.950877 C 12.432854,2.8633123 12.687142,4.4182813 12.098297,5.241542 11.92978,5.046532 11.54287,4.670358 11.34582,4.5108044 Z m -0.462911,1.0922892 c 2.82e-4,-0.025686 0.0087,-0.2236728 0.02427,-0.3140607 -0.04101,-0.011129 -0.296305,-0.068648 -0.429375,-0.065025 -0.0097,0.1924866 0.07022,0.5200052 0.149247,0.7171504 C 11.171074,5.9280233 11.56405,5.7403898 11.795365,5.5678312 11.598427,5.462109 11.262409,5.3681625 11.00694,5.3119371 10.9784,5.3798731 10.90825,5.5529498 10.882913,5.6030935 Z"
     id="path4"
     inkscape:connector-curvature="0"
     style="fill:#00acee;stroke-width:0.06028584" />
  <path
     d="m 8.8612932,10.910032 5.617e-4,0.003 c -0.068922,-0.17095 -0.1421703,-0.378512 -0.2296295,-0.649935 0.3405124,0.570991 1.4078296,0.276468 1.3518265,-0.235125 0.5223961,0.45278 1.5976891,-0.07544 1.3532311,-0.7102922 0.523294,0.2808688 1.120567,-0.2842333 0.986598,-0.530487 0.892174,0.1981805 1.747105,0.3957786 2.015494,0.4749084 -0.17829,0.3348118 -0.584354,0.5712954 -1.196456,0.4069538 0.330794,0.518905 -0.311359,1.141528 -1.20578,0.798609 0.196881,0.509459 -0.599463,0.968193 -1.504557,0.437124 0.01151,0.509716 -1.1228708,0.568401 -1.5712888,0.0051 z M 10.631036,8.3338813 c 1.035468,0.091617 2.747804,0.2694167 3.807875,0.4402931 -0.06696,-0.3973313 -0.249908,-0.5108823 -0.825386,-0.6889406 -0.618899,0.076025 -2.189121,0.2536942 -2.982489,0.2486475 z"
     id="path6"
     inkscape:connector-curvature="0"
     style="fill:#2baf2b;stroke-width:0.06028584" />
  <path
     d="m 9.9840519,10.028023 c 0.5223961,0.45278 1.5976891,-0.07544 1.3532311,-0.710292 0.523294,0.2808688 1.120567,-0.2842333 0.986598,-0.5304869 -1.054734,-0.234219 -2.161485,-0.469344 -2.4125721,-0.5104293 0.1522251,0.00931 0.4047171,0.029245 0.7197271,0.057132 0.793368,0.00505 2.36359,-0.1726233 2.982489,-0.2486473 C 12.611422,7.7925893 10.565372,7.3654953 9.1523745,7.260226 9.0868784,7.3704773 8.9664464,7.5573996 8.756814,7.7560976 8.1386454,9.2627348 7.018527,10.264248 5.7791564,10.264248 c -0.3611836,0 -0.7652822,-0.0702 -1.2181939,-0.236937 -0.282431,0.348547 -1.4867506,0.612658 -2.4639122,0.06017 0.7751123,2.090503 2.5726041,3.485983 4.5622591,3.485983 1.6757119,0 2.4187501,-1.970999 2.2561332,-2.492493 -0.039432,-0.126621 -0.1958142,-0.546404 -0.2832734,-0.817826 0.3405686,0.570991 1.4078298,0.276468 1.3518827,-0.235124 z"
     id="path8"
     inkscape:connector-curvature="0"
     style="fill:#ffcc2f;stroke-width:0.06028584" />
  <path
     d="M 8.9685809,6.0612442 C 9.1164809,5.968527 9.6278115,5.6115694 10.115044,5.4773786 A 2.161484,2.4897103 0 0 1 10.097912,5.2895505 C 9.7782946,5.3776739 9.1756295,5.6751708 8.8303427,5.2652228 9.5588882,5.5184641 9.9226559,5.0396089 10.458196,5.0396089 c 0.319054,0 0.774383,0.1026171 1.133262,0.2649523 C 11.302792,4.997359 10.356132,4.070317 9.1840558,4.067082 8.9223519,4.4325156 8.6395277,5.2241374 8.9685249,6.0611794 Z"
     id="path10"
     inkscape:connector-curvature="0"
     style="fill:#cecece;stroke-width:0.06028584" />
  <path
     d="m 4.5609625,10.027311 c 0.4529117,0.166736 0.8570103,0.236937 1.2181939,0.236937 1.2393706,0 2.3594328,-1.0015779 2.9776576,-2.5081504 C 8.299577,8.1957438 7.504917,8.5719178 6.2639174,8.5719178 7.3693188,8.2831553 8.3209222,7.6486288 8.8050092,6.7211987 8.4647215,6.0973476 8.0956179,4.7172018 9.0302575,3.6261418 8.8864581,3.0941022 8.1867282,1.6896286 6.637571,1.6896286 c -2.7035402,0 -4.9441137,2.6057848 -4.9441137,6.0979788 0,0.8266899 0.1448665,1.6020069 0.4036492,2.2998766 0.9771054,0.552485 2.181425,0.288374 2.463856,-0.06017 z"
     id="path12"
     inkscape:connector-curvature="0"
     style="fill:#ef5734;stroke-width:0.06028584" />
  <path
     d="m 5.3720806,4.7100846 c 0,0.7943392 0.5590761,1.4383124 1.2486951,1.4383124 0.6896752,0 1.2488076,-0.6439732 1.2488076,-1.4383124 0,-0.7944039 -0.5591324,-1.438377 -1.2488076,-1.438377 -0.689619,0 -1.2486951,0.6439731 -1.2486951,1.4383123 z"
     id="path14"
     inkscape:connector-curvature="0"
     style="fill:#ffcc2f;stroke-width:0.06028584" />
  <path
     d="m 5.8731877,4.7100846 c 0,0.4755555 0.3347827,0.8611111 0.747588,0.8611111 0.4129175,0 0.7476443,-0.3856203 0.7476443,-0.8611758 0,-0.4755554 -0.3346706,-0.8611757 -0.7476443,-0.8611757 -0.4128614,0 -0.7476443,0.3856203 -0.7476443,0.8611757 z"
     id="path16"
     inkscape:connector-curvature="0"
     style="fill:#543729;stroke-width:0.06028584" />
  <ellipse
     cx="6.6207757"
     cy="4.3279576"
     rx="0.4356671"
     ry="0.3119902"
     id="ellipse18"
     style="fill:#ffffff;stroke-width:0.06028584" />
</svg>

<svg xmlns="http://www.w3.org/2000/svg" width="16" height="16" viewBox="0 0 16 16" preserveAspectRatio="xMinYMin meet"><path d="M15.14 8.073c-.737-.816-4.424-1.326-5.587-1.474a3.414 3.932 0 00.144-.475 4.655 5.362 0 01.507-.217c.021.074.123.354.18.488 2.34.074 2.46-2.003 2.555-2.572.093-.556.089-1.093.89-2.076-1.194-.401-2.914.622-3.49 2.145a3.223 3.223 0 00-.647-.205C9.538 2.973 8.738.983 6.638.983 3.978.983 1.08 3.51 1.08 7.788c0 3.596 2.131 6.747 3.335 6.747.526 0 .979-.454 1.085-.86.089.278.362 1.145.452 1.366.132.326.746.608 1.014.27.345.22.978.354 1.324-.235.664.162 1.252-.295 1.265-.84.326-.02.486-.547.414-.967-.052-.31-.613-1.419-.832-1.802.433.406 1.53.52 1.663 0 .699.631 1.787.3 1.873-.213.848.254 1.821-.304 1.661-.98 1.363-.108 1.189-1.778.806-2.201z" fill="#543729" stroke-width=".06"/><path d="M11.346 4.51c.293-.67.662-1.402 1.128-1.856-.513.238-1.019.95-1.318 1.71a4.617 5.319 0 00-.464-.298c.418-1.027 1.388-1.884 2.457-1.95-.716.747-.462 2.302-1.05 3.126a8.102 8.102 0 00-.753-.731zm-.463 1.093c0-.026.009-.224.024-.314a2.17 2.17 0 00-.43-.065c-.009.192.071.52.15.717.544-.013.937-.2 1.168-.373-.197-.106-.533-.2-.788-.256-.029.068-.099.24-.124.291z" fill="#00acee" stroke-width=".06"/><path d="M8.861 10.91v.003a9.787 9.787 0 01-.229-.65c.34.571 1.408.277 1.352-.235.522.453 1.598-.075 1.353-.71.524.28 1.12-.285.987-.53.892.197 1.747.395 2.015.474-.178.335-.584.571-1.196.407.33.519-.311 1.142-1.206.799.197.51-.6.968-1.504.437.011.51-1.123.568-1.572.005zm1.77-2.576c1.036.091 2.748.27 3.808.44-.067-.397-.25-.51-.825-.689-.62.076-2.19.254-2.983.249z" fill="#2baf2b" stroke-width=".06"/><path d="M9.984 10.028c.522.453 1.598-.075 1.353-.71.524.28 1.12-.285.987-.53a84.013 84.013 0 00-2.413-.511c.153.01.405.03.72.057.793.005 2.364-.173 2.983-.249-1.003-.292-3.049-.72-4.462-.825a2.26 2.26 0 01-.395.496c-.618 1.507-1.738 2.508-2.978 2.508-.361 0-.765-.07-1.218-.237-.282.349-1.487.613-2.464.06.775 2.091 2.573 3.486 4.562 3.486 1.676 0 2.42-1.97 2.256-2.492-.039-.127-.195-.546-.283-.818.34.571 1.408.277 1.352-.235z" fill="#ffcc2f" stroke-width=".06"/><path d="M8.969 6.061c.147-.092.659-.45 1.146-.584a2.161 2.49 0 01-.017-.187c-.32.088-.922.385-1.268-.025.729.253 1.093-.225 1.628-.225.32 0 .775.102 1.133.265-.288-.308-1.235-1.235-2.407-1.238a2.179 2.179 0 00-.215 1.994z" fill="#cecece" stroke-width=".06"/><path d="M4.561 10.027c.453.167.857.237 1.218.237 1.24 0 2.36-1.001 2.978-2.508-.457.44-1.252.816-2.493.816 1.105-.289 2.057-.923 2.541-1.85-.34-.625-.71-2.005.225-3.096-.144-.532-.843-1.936-2.392-1.936-2.704 0-4.945 2.605-4.945 6.098 0 .826.145 1.602.404 2.3.977.552 2.182.288 2.464-.06z" fill="#ef5734" stroke-width=".06"/><path d="M5.372 4.71c0 .794.56 1.438 1.249 1.438.69 0 1.249-.644 1.249-1.438 0-.794-.56-1.438-1.25-1.438-.689 0-1.248.644-1.248 1.438z" fill="#ffcc2f" stroke-width=".06"/><path d="M5.873 4.71c0 .476.335.861.748.861s.747-.385.747-.861-.334-.861-.747-.861-.748.385-.748.861z" fill="#543729" stroke-width=".06"/><ellipse cx="6.621" cy="4.328" rx=".436" ry=".312" fill="#fff" stroke-width=".06"/></svg>
